X:1
T:Title
%%score { ( 1 2 ) | ( 3 4 ) }
L:1/8
Q:1/4=78
M:6/8
K:Eb
V:1 treble nm="Grand Piano"
V:2 treble 
V:3 bass 
V:4 bass 
V:1
 .B3 z3 | .[EAB]2 [DAc] [GB]3 | .G3 z3 | [A,DF]2 [G,DG] [G,CE]3 | z3 .[GB]3 | .[A,EF]3 [G,E]3 | %6
w: Maltbie~Babcok||||||
 .G3 z3 | .[CFG]2 [=B,FA] [CEG]3 | e2 d c2 [GB] | [GB]AG F3 | z3 .[GB]3 | .[A,EF]3 [G,E]3 |] %12
w: ||||||
V:2
 [B,G]FB [Ge]2 [B,EB] | x6 | z DG BA[B,EG] | x6 | [B,DB]2 [G,B,E] C-[CA][CEG] | x6 | %6
 [G,E]DG [Ec]2 [G,CG] | x6 | x6 | x6 | B2 E C-[CFA][G,CEG] | x6 |] %12
V:3
 z A,[E,G,E] [E,B,]2 G, | z DB,, [E,E]3 | .[E,E]2 [E,_DE] C=B,E, | B,,2 =B,, C,3 | %4
 [G,,G,]2 C, z FA,, | z2 D E,3 | z F,[C,E,C] [C,G,]2 E, | z =B,G,, C,E,G, | %8
 [CEG]2 [G,=B,F][K:bass] [A,CE]2 [=E,_D] | _D[K:treble][CF][G,CE] [A,CE]3 | %10
 [B,EG]2[K:bass] [C,G,B,] F,,-[F,,F,]A,, | z2 D E,3 |] %12
V:4
 .E,3 z3 | .F,3 z3 | z3 .[E,E]3 | x6 | z3 .F,,3 | B,,3 z3 | .C,3 z3 | .D,3 z3 | x3[K:bass] x3 | %9
 .F,3[K:treble] z3 | z3[K:bass] .=E,3 | B,,3 z3 |] %12

